img/imagenes/logo.svg

<svg width="32" height="48" viewBox="0 0 32 48" fill="none" xmlns="http://www.w3.org/2000/svg">
<path fill-rule="evenodd" clip-rule="evenodd" d="M24.084 23.6529C24.0393 23.9311 23.9304 24.1959 23.7654 24.4275C23.6004 24.659 23.3836 24.8512 23.1313 24.9898C22.6231 25.3086 22.1785 25.468 21.7286 25.6274C20.7705 25.9488 19.7621 26.2702 18.6956 26.643C17.5708 27.0157 16.5624 27.3885 15.6626 27.6585C14.5404 28.0313 13.4738 28.3526 12.4602 28.7254C11.6976 29.0425 10.9812 29.4556 10.3297 29.9544C9.72369 30.4877 9.19486 31.0983 8.75759 31.7695C8.30767 32.515 8.02448 33.4766 8.02448 34.5975C8.02448 36.842 8.58556 38.5491 9.71036 39.6161C10.8325 40.7396 12.9127 41.2718 15.996 41.2718C19.1402 41.2718 21.2733 40.6856 22.4008 39.5107C23.5203 38.3357 24.0814 36.6826 24.0814 34.5487V23.6529H24.084ZM15.9987 0C21.5036 0 25.545 1.01553 28.1254 3.09802C30.7085 5.12908 32 7.74119 32 10.8366V37.2148C32 38.2817 31.7777 39.4567 31.386 40.737C30.989 42.0225 30.2056 43.1949 28.9696 44.2592C27.7919 45.3313 26.1643 46.2389 24.0867 46.933C22.0091 47.6272 19.3149 48 16.0013 48C12.6931 48 9.99355 47.6272 7.91862 46.933C5.84369 46.2389 4.21338 45.3313 3.03565 44.2592C1.94004 43.3001 1.11006 42.089 0.62195 40.737C0.224961 39.4592 0 38.2843 0 37.2174V33.001C0 30.7565 0.616657 28.674 1.85262 26.8563C3.08858 24.9898 4.82739 23.7095 7.07435 22.9073C8.19651 22.5345 9.48805 22.1618 10.9463 21.681C12.4072 21.1976 13.7517 20.7169 15.1015 20.2927C16.4512 19.8633 17.629 19.434 18.6373 19.0586C19.2458 18.8221 19.8639 18.6094 20.49 18.421L21.5009 17.9402C21.8979 17.7268 22.287 17.4055 22.6813 16.9787C23.073 16.5545 23.4091 16.0737 23.6923 15.5389C23.9915 14.9599 24.1457 14.3203 24.1423 13.6724V11.9627C24.1464 11.3361 24.011 10.716 23.7453 10.145C23.523 9.5023 23.073 8.91612 22.4564 8.38393C21.8397 7.84917 20.9955 7.42239 19.9871 7.09845C18.9761 6.78222 17.6316 6.62025 16.1125 6.62025C12.9683 6.62025 10.8907 7.21157 9.76859 8.43535C8.81581 9.50488 8.25473 10.8392 8.14358 12.3329C8.14358 12.6543 7.86304 12.8677 7.52427 12.8677L0.677529 12.9757C0.51489 12.9764 0.358555 12.9146 0.242564 12.8039C0.126572 12.6931 0.0603177 12.5423 0.0582251 12.3844V10.8418C0.0582251 9.3429 0.341411 7.95458 0.958068 6.62025C1.57737 5.28334 2.53279 4.16497 3.82169 3.20086C5.11322 2.24189 6.79911 1.44231 8.81846 0.907552C10.7849 0.26481 13.1986 0 16.004 0H15.9987Z" fill="#0A3871"/>
</svg>

<?xml version="1.0" standalone="no"?>
<!DOCTYPE svg PUBLIC "-//W3C//DTD SVG 1.0//EN" "http://www.w3.org/TR/2001/REC-SVG-20010904/DTD/svg10.dtd">
<svg width="32" height="48" viewBox="0 0 32 48" fill="none" xmlns="http://www.w3.org/2000/svg" xmlns:inkscape ="http://www.inkscape.org/namespaces/inkscape" >
<desc>CopyRight:SVG Design Editor;
configurationStart;Unit=smInches;Dpi=96;Division=4;Grid=True;Zoom=1;CanvasW=1152;CanvasH=1152;configurationEnd;</desc>
<g inkscape:label = "logo Default Layer" inkscape:groupmode = "layer" ><path style="fill:#D8D8D8;stroke:none; stroke-width:1" d="m24.08,23.65c-0.04,0.28 -0.15,0.54 -0.32,0.77c-0.16,0.23 -0.38,0.42 -0.63,0.56c-0.51,0.32 -0.95,0.48 -1.4,0.64c-0.96,0.32 -1.97,0.64 -3.03,1.02c-1.12,0.37 -2.13,0.75 -3.03,1.02c-1.12,0.37 -2.19,0.69 -3.2,1.07c-0.76,0.32 -1.48,0.73 -2.13,1.23c-0.61,0.53 -1.13,1.14 -1.57,1.82c-0.45,0.75 -0.73,1.71 -0.73,2.83c0,2.24 0.56,3.95 1.69,5.02c1.12,1.12 3.2,1.66 6.29,1.66c3.14,0 5.28,-0.59 6.4,-1.76c1.12,-1.17 1.68,-2.83 1.68,-4.96l0,-10.9l0,0l0,0zm-8.09,-23.65c5.5,0 9.55,1.02 12.13,3.1c2.58,2.03 3.87,4.64 3.87,7.74l0,26.38c0,1.07 -0.22,2.24 -0.61,3.52c-0.4,1.29 -1.18,2.46 -2.42,3.52c-1.18,1.07 -2.81,1.98 -4.88,2.67c-2.08,0.69 -4.77,1.07 -8.09,1.07c-3.31,0 -6.01,-0.37 -8.08,-1.07c-2.07,-0.69 -3.71,-1.6 -4.88,-2.67c-1.1,-0.96 -1.93,-2.17 -2.41,-3.52c-0.4,-1.28 -0.62,-2.45 -0.62,-3.52l0,-4.22c0,-2.24 0.62,-4.33 1.85,-6.14c1.24,-1.87 2.97,-3.15 5.22,-3.95c1.12,-0.37 2.41,-0.75 3.87,-1.23c1.46,-0.48 2.81,-0.96 4.16,-1.39c1.35,-0.43 2.53,-0.86 3.54,-1.23c0.61,-0.24 1.23,-0.45 1.85,-0.64l1.01,-0.48c0.4,-0.21 0.79,-0.53 1.18,-0.96c0.39,-0.42 0.73,-0.91 1.01,-1.44c0.3,-0.58 0.45,-1.22 0.45,-1.87l0,-1.71c0,-0.63 -0.13,-1.25 -0.4,-1.82c-0.22,-0.64 -0.67,-1.23 -1.29,-1.76c-0.62,-0.53 -1.46,-0.96 -2.47,-1.29c-1.01,-0.32 -2.36,-0.48 -3.87,-0.48c-3.14,0 -5.22,0.59 -6.34,1.82c-0.95,1.07 -1.51,2.4 -1.63,3.9c0,0.32 -0.28,0.53 -0.62,0.53l-6.85,0.11c-0.16,0 -0.32,-0.06 -0.43,-0.17c-0.12,-0.11 -0.18,-0.26 -0.18,-0.42l0,-1.54c0,-1.5 0.28,-2.89 0.9,-4.22c0.62,-1.34 1.57,-2.46 2.86,-3.42c1.29,-0.96 2.98,-1.76 5,-2.29c1.97,-0.64 4.38,-0.91 7.19,-0.91l-0.01,0l0,0z" fill-rule = "evenodd" clip-rule = "evenodd" vector-effect="non-scaling-stroke" pen = "1,1" />
</g>
</svg>
